X:1
T:[ID 8-12]
T:[ID 8-12]
T:Bezeichnung standardisiert: Franz\"osischer Tanz Franss\"ol. 3
T:Urheber unbekannt Erstbeleg: 1792 (Datum in der schriftlichen Quelle) Datum in der hier transkribierten schriftlichen Quelle: vermutlich um 1800
C:Urheber unbekannt
C:Erstbeleg: 1792 (Datum in der schriftlichen Quelle)
C:Datum in der hier transkribierten schriftlichen Quelle: vermutlich um 1800
L:1/8
M:2/4
K:D
V:1 treble 
V:1
 f/g/ | aa a b/d'/ | aa a g/f/ | ff f e/c/ | dA A f/g/ | aa a b/d'/ | aa a g/e/ | ff/d/ ee/c/ | %8
 dD D :: (c/d/) | ee e (f/d/) | g2 e(d/e/) | ff fg/e/ | a2 f(f/g/) | aa ab/d'/ | aa a(g/f/) | %16
 f(f/d/) e(e/c/) | d3 :| %18

